src/assets/images/xr.svg

<?xml version="1.0" encoding="UTF-8"?>
<svg width="32" height="32" viewBox="0 0 48 48" version="1.1" xmlns="http://www.w3.org/2000/svg" xmlns:xlink="http://www.w3.org/1999/xlink">
    <!-- Generator: Sketch 63.1 (92452) - https://sketch.com -->
    <title>Shape</title>
    <desc>Created with Sketch.</desc>
    <g id="Page-1" stroke="none" stroke-width="1" fill="none" fill-rule="evenodd">
        <g id="xr" fill="#000000" fill-rule="nonzero">
            <path d="M43.5101082,24 C43.5268546,29.098389 41.5744048,34.0063821 38.06,37.7 L26.18,24 L38.06,10.37 C41.5585624,14.0455377 43.5098719,18.9256019 43.5101082,24 M23.65,4.16997325 C28.4284224,4.16486116 33.0468381,5.89143809 36.65,9.03 L10.65,9.03 C14.2517441,5.88905831 18.8710866,4.16213488 23.65,4.16997325 M9.24,10.37 L21.12,24 L9.24,37.7 C1.97515027,30.0383546 1.97515027,18.0316454 9.24,10.37 M23.65,21.12 L16.29,12.66 L31,12.66 L23.65,21.12 Z M23.65,26.94 L31,35.41 L16.29,35.41 L23.65,26.94 Z M23.65,43.9400267 C18.8710866,43.9478651 14.2517441,42.2209417 10.65,39.08 L36.65,39.08 C33.0468381,42.2185619 28.4284224,43.9451388 23.65,43.9400267 M47.1300341,24 C47.1134365,11.0362722 36.5937592,0.538969671 23.6300256,0.549999814 C10.6662919,0.561047354 0.164507159,11.07625 0.170019119,24.0399872 C0.17553542,37.0037244 10.6862616,47.5100021 23.65,47.5100021 C29.8833002,47.5126649 35.8616278,45.0356219 40.2664222,40.6251996 C44.6712166,36.2147773 47.140624,30.2332918 47.1300341,24" id="Shape"></path>
        </g>
    </g>
</svg>

<svg width="32" height="32" viewBox="0 0 48 48" xmlns="http://www.w3.org/2000/svg">
  <path d="M43.51 24a19.78 19.78 0 01-5.45 13.7L26.18 24l11.88-13.63A19.77 19.77 0 0143.51 24M23.65 4.17a19.76 19.76 0 0113 4.86h-26a19.73 19.73 0 0113-4.86m-14.41 6.2L21.12 24 9.24 37.7c-7.265-7.662-7.265-19.668 0-27.33m14.41 10.75l-7.36-8.46H31l-7.35 8.46zm0 5.82L31 35.41H16.29l7.36-8.47zm0 17a19.73 19.73 0 01-13-4.86h26a19.76 19.76 0 01-13 4.86M47.13 24C47.113 11.036 36.594.539 23.63.55 10.666.561.165 11.076.17 24.04c.006 12.964 10.516 23.47 23.48 23.47A23.47 23.47 0 0047.13 24" fill="#fff" fill-rule="nonzero"/>
</svg>
